X: 65
T: Rondo z Krakowiaka
C: Mikołaj Janicki
%%abc-version 2.0
%%abcx-abcm2ps-target-version 5.9.1 (29 Sep 2008)
%%abc-creator hum2abc beta
%%abcx-conversion-date 2021/10/04 07:38:41
%%abc-edited-by Katarzyna Serwa
%%abc-edited-by Kamil Watkowski
%%abcx-initial-encoding-date 2021-08-13
%%humdrum-veritas 3192384540
%%humdrum-veritas-data 1205783816
%%linebreak <none>
%%barnumbers 0
L: 1/8
M: 2/4
N: Derived from pl-kozmzk--mzk-m-199_janicki-mikolaj-rondo-z-krakowiaka.krn
Q: "Allegretto"
%%staves {1 2}
V: 1 clef=treble
V: 2 clef=bass
K: G
[V:1] G!turn!G Bc | 
[V:2] [B,G,]D [B,G,]D | 
[V:1] d!turn!d ed | 
[V:2] [B,G,]D [B,G,]D | 
[V:1] d^c ed | 
[V:2] [B,G,]D [B,G,]D | 
[V:1] d^c ed | 
[V:2] [B,G,]D [B,G,]D | 
[V:1] d{/e}d =c3/A/ | 
[V:2] [CA,]D [A,D,]D | 
[V:1] GB2B/c/ | 
[V:2] [B,G,]D [B,G,]D | 
[V:1] d{/e}d c3/A/ | 
[V:2] [CA,]D [A,D,]D | 
[V:1] AGG2 | 
[V:2] [B,G,]D[B,2G,2] | 
[V:1] g!turn!g [bg][c'a] | 
[V:2] G,,[G,D,B,,] G,,G, | 
[V:1] [d'b][^c'^a] [e'=c'][d'b] | 
[V:2] G,,G, G,,[G,D,B,,] | 
[V:1] [d'b][^c'^a] [e'=c'][d'b] | 
[V:2] G,,G, G,,[G,D,B,,] | 
[V:1] [d'b][^c'^a] [e'=c'][d'b] | 
[V:2] G,,G, G,,[G,D,B,,] | 
[V:1] [d'b]{/e'}[d'b] [c'3/a3/][a/f/] | 
[V:2] D,,D, D,,[D,A,,F,,] | 
[V:1] g[b2g2][b/g/][c'/a/] | 
[V:2] G,,[G,D,B,,] G,,[G,D,B,,] | 
[V:1] [d'b][d'b] [c'3/a3/][a/f/] | 
[V:2] D,,D, D,,[D,A,,F,,] | 
[V:1] [ac]>[gB][g2B2] |]  
[V:2] G,D,G,,2 |]  
[V:1] a{/b}a g3/e/ [I:setbarnb 18]| 
[V:2] [K:clef=treble][GE]A, [GE]A, | 
[V:1] df2e/d/ | 
[V:2] [FD]A, [FD]A, | 
[V:1] d/^c/B/A/ ^G/A/B/c/ | 
[V:2] [GE]A, [GE]A, | 
[V:1] d/e/f/=g/ a/^g/b/a/ | 
[V:2] [FD]A, [FD]A, | 
[V:1] a/b/a/^g/ a/b/^c'/a/ | 
[V:2] [GE]A, [GE]A, | 
[V:1] d'!accent!f'2e'/d'/ | 
[V:2] [FD]A, [FD]A, | 
[V:1] d'/^c'/b/a/ ^g/a/b/^c'/ | 
[V:2] [GE]A, [GE]A, | 
[V:1] d'2z2 | 
[V:2] [FD]A [F=C]A | 
[V:1] ^d'>=c' ba | 
[V:2] B,/A/F/A/ B,/A/F/A/ | 
[V:1] eg2f/e/ | 
[V:2] E/B/G/B/ E/B/G/B/ | 
[V:1] {/e} e'>e' =d'b | 
[V:2] E/=d/B/d/ E/d/B/d/ | 
[V:1] d'>c'c'2 | 
[V:2] E/c/A/c/ E/c/A/c/ | 
[V:1] {/d} d'>d' c'a | 
[V:2] D/c/A/c/ D/c/A/c/ | 
[V:1] g!accent!b2a/g/ | 
[V:2] D/B/G/B/ D/B/G/B/ | 
[V:1] g/f/e/d/ ^c/d/e/c/ | 
[V:2] [GE]A, [GE]A, | 
[V:1] d/e/f/g/ a/b/^c'/d'/ | 
[V:2] [FD][AF] [FD][AF] | 
[V:1] d'/^c'/b/a/ ^g/a/=g/e/ | 
[V:2] [EA,][GE] [EA,][GE] | 
[V:1] d/e/f/g/ a/b/^c'/d'/ | 
[V:2] [FD][AF] [FD][AF] | 
[V:1] d'/^c'/b/a/ ^g/a/=g/e/ | 
[V:2] [EA,][GE] [EA,][GE] | 
[V:1] d2z d/[e/^c/] | 
[V:2] [FD][AF] [FD] z[K:clef=bass] | 
[V:1] [fd][f/d/][g/e/] [af][a/f/][b/g/] | 
[V:2] D,D D,D | 
[V:1] [=c'2a2]z d/[e/^c/] | 
[V:2] D,/D/^C/D/ D, z | 
[V:1] [fd][f/d/][g/e/] [af][a/f/][b/g/] | 
[V:2] D,D D,D | 
[V:1] [=c'3a3][b^g] | 
[V:2] D,/D/^C/D/ D,D | 
[V:1] [=c'a][b^g] [c'a][bg] | 
[V:2] D,D D,D | 
[V:1] [c'a] zz2 | 
[V:2] z/ D,/E,/F,/ G,/A,/B,/^C/ | 
[V:1] z [b^g] [=c'a][bg] | 
[V:2] D zz2 | 
[V:1] [c'a] zz2 | 
[V:2] z/ D,/E,/F,/ G,/A,/B,/^C/ | 
[V:1] z [b^g] [=c'a][bg] | 
[V:2] D zz2 | 
[V:1] [c'a][c'afd][c'afd][c'afd] | 
[V:2] z [DD,][A,A,,][F,F,,] | 
[V:1] [c'afd][c'afd][c'afd][c'af_e] | 
[V:2] [D,D,,][A,A,,][F,F,,][_E,_E,,] | 
[V:1] [c'4a4f4d4] | 
[V:2] [D,4D,,4] | 
[V:1]  [K:Bb] {/dgb} d'>c' b/a/g/^f/ | 
[V:2]  [K:Bb] [B,G,]D [B,G,]D | 
[V:1] e/d/c/B/ A/G/^F/A/ | 
[V:2] [A,D,]C [A,D,]C | 
[V:1] G/A/B/c/ d/=e/^f/g/ | 
[V:2] [B,G,]D [B,G,]D | 
[V:1] ^f/d/a/_e/ d/c/B/A/ | 
[V:2] [CA,]D [C^F,]D | 
[V:1] {/dgb} d'>c' b/a/g/^f/ | 
[V:2] [B,G,]D [B,G,]D | 
[V:1] e/d/c/B/ A/G/^F/A/ | 
[V:2] [A,D,]C [A,D,]C | 
[V:1] G/A/B/c/ d/e/c/A/ | 
[V:2] [B,G,]D [C^F,]D | 
[V:1] G/B/d/g/G2 | 
[V:2] [B,G,]D[B,2G,2] | 
[V:1] =f/e'/c'/a/ f/e/c/A/ | 
[V:2] [EC]=F, [EC]F, | 
[V:1] F/F/G/F/ _A/F/=A/F/ | 
[V:2] [EC]F, [EC]F, | 
[V:1] [B/D/]F/[B/D/]F/ [d/B/]F/[e/c/]F/ | 
[V:2] B,,B, B,,B, | 
[V:1] [f/d/]F/[=e/^c/]F/ [g/_e/]F/[f/d/]F/ | 
[V:2] B,,B, B,,B, | 
[V:1] f/e'/c'/a/ f/e/c/A/ | 
[V:2] [EC]F, [EC]F, | 
[V:1] F/F/G/F/ _A/F/=A/F/ | 
[V:2] [EC]F, [EC]F, | 
[V:1] B/F/[c/A/]F/ [d/B/]F/[e/c/]F/ | 
[V:2] [DB,]F, [DB,]F, | 
[V:1] [f/d/]B/[b/f/]d/ [d'/b/]f/[f'/d'/]b/ | 
[V:2] [DB,]F, [DB,]F, | 
[V:1] {/g} g'/e'/b/g/ e/B/G/E/ | 
[V:2] E,,E, E,,E, | 
[V:1] B,/D/F/B/ d/f/b/d'/ | 
[V:2] D,,D, D,,D, | 
[V:1] [f'd'][f'd'] [e'3/c'3/][c'/a/] | 
[V:2] F,,/F,/=E,/F,/ F,,F, | 
[V:1] [e'c'][d'b][d'2b2] | 
[V:2] [D,B,,]F, [D,B,,]F, | 
[V:1] {/g} g'/e'/b/g/ e/B/G/E/ | 
[V:2] E,,E, E,,E, | 
[V:1] B,/D/F/B/ d/f/b/d'/ | 
[V:2] D,,D, D,,D, | 
[V:1] f/f'/=e'/_e'/ d'/c'/b/a/ | 
[V:2] [EC]F, [EC]F, | 
[V:1] {/c'} b/a/b/c'/ d'/b/f/d/ | 
[V:2] [DB,]F, [DB,]F, | 
[V:1] f/f'/=e'/_e'/ d'/c'/b/a/ | 
[V:2] [EC]F, [EC]F, | 
[V:1] {/c'} b/>a/b/>c'/ d'/>c'/b3//a// | 
[V:2] B,,B, A,,A, | 
[V:1] g/>^f/g/>a/ b/>a/g3//=f// | 
[V:2] G,,G, =F,,F, | 
[V:1] e/>d/e/>f/ g/>f/e3//d// | 
[V:2] E,,E, D,,D, | 
[V:1] c/>=B/c/>d/ e/>d/c3//B// | 
[V:2] C,,C, _B,,,B,, | 
[V:1] A/>G/A/>B/ c/>B/A3//G// | 
[V:2] A,,,A,, G,,,G,, | 
[V:1] z/ ^F/A/c/ e/^f/a/c'/ | 
[V:2] ^F,,,^F,, F,,,F,, | 
[V:1] z/ G/B/d/ g/b/d'/g'/ | 
[V:2] G,,,G,, G,,,G,, | 
[V:1] z/ ^f'/e'/c'/ a/^f/e/c/ | 
[V:2] ^F,,,^F,, F,,,F,, | 
[V:1] z/ g/d/B/ G/D/B,/G,/ | 
[V:2] G,,,G,, G,,,G,, | 
[V:1] z/ =E,/G,/B,/ ^C/=E/G/B/ | 
[V:2] ^C,,^C, C,,C, | 
[V:1] z/ D/^F/A/ d/^f/a/d'/ | 
[V:2] D,,D, D,,D, | 
[V:1] z/ =E/G/B/ ^c/=e/(3g/b/^c'/ | 
[V:2] ^C,,^C, C,,C, | 
[V:1] [d'4a4^f4d4] | 
[V:2] [D,4A,,4^F,,4D,,4] | 
[V:1]  [K:G] G!turn!G Bc | 
[V:2]  [K:G] [B,G,]D [B,G,]D | 
[V:1] d!turn!d ed | 
[V:2] [B,G,]D [B,G,]D | 
[V:1] d^c ed | 
[V:2] [B,G,]D [B,G,]D | 
[V:1] d^c ed | 
[V:2] [B,G,]D [B,G,]D | 
[V:1] d{/e}d =c3/A/ | 
[V:2] [CA,]D [A,D,]D | 
[V:1] GB2B/c/ | 
[V:2] [B,G,]D [B,G,]D | 
[V:1] d{/e}d c3/A/ | 
[V:2] [CA,]D [A,D,]D | 
[V:1] AGG2 | 
[V:2] [B,G,]D[B,2G,2] | 
[V:1] g!turn!g [bg][c'a] | 
[V:2] G,,[G,D,B,,] G,,G, | 
[V:1] [d'b][^c'^a] [e'=c'][d'b] | 
[V:2] G,,G, G,,[G,D,B,,] | 
[V:1] [d'b][^c'^a] [e'=c'][d'b] | 
[V:2] G,,G, G,,[G,D,B,,] | 
[V:1] [d'b][^c'^a] [e'=c'][d'b] | 
[V:2] G,,G, G,,[G,D,B,,] | 
[V:1] [d'b]{/e'}[d'b] [c'3/a3/][a/f/] | 
[V:2] D,,D, D,,[D,A,,F,,] | 
[V:1] g[b2g2][b/g/][c'/a/] | 
[V:2] G,,[G,D,B,,] G,,[G,D,B,,] | 
[V:1] [d'b][d'b] [c'3/a3/][a/f/] | 
[V:2] D,,D, D,,[D,A,,F,,] | 
[V:1] [ac]>[gB][g2B2] |]  
[V:2] G,D,G,,2[K:clef=treble] |]  
[V:1] b!turn!b c'b [I:setbarnb 104]| 
[V:2] [AF^D]B [AFD]B | 
[V:1] b!accent!e'2d'/c'/[K:clef=bass] | 
[V:2] [GE]B [GE]B | 
[V:1] B,>B, A,3/F,/ | 
[V:2] [AF^D]B [AFD]B | 
[V:1] A,G,G,2[K:clef=treble] | 
[V:2] [GE]B [GE]B | 
[V:1] a!turn!a ba | 
[V:2] [K:clef=treble][GE^C]A [GEC]A | 
[V:1] a!accent!f'2e'/d'/[K:clef=bass] | 
[V:2] [FD]A [FD]A | 
[V:1] A,>A, G,3/^C,/ | 
[V:2] [GE^C]A [GEC]A | 
[V:1] E,D,D,2 | 
[V:2] [FD]A [FD]A[K:clef=bass] | 
[V:1] [K:clef=treble][=c'/a/]d/[c'/a/]d/ [b/g/]d/[a/f/]d/ | 
[V:2] D,,D, D,,D, | 
[V:1] [b/g/]d/[c'/a/]d/ [d'/b/]d/[b/g/]d/ | 
[V:2] G,,G, G,,G, | 
[V:1] [c'/a/]d/[c'/a/]d/ [b/g/]d/[a/f/]d/ | 
[V:2] D,,D, D,,D, | 
[V:1] [c'/a/]d/[b/g/]d/ [^a/f/]d/[b/g/]d/ | 
[V:2] G,,G, G,,G, | 
[V:1] [g/e/]G/[g/e/]G/ [f/^d/]G/[g/e/]G/ | 
[V:2] C,,C, C,,C, | 
[V:1] [a/f/]G/[g/e/]G/ [f/d/]G/[e/c/]G/ | 
[V:2] C,,C, C,,C, | 
[V:1] [d/B/]D/[B/G/]D/ [B/G/]D/[d/B/]D/ | 
[V:2] D,,D, D,,D, | 
[V:1] [d/B/]D/[c/A/]D/ [B/G/]D/[A/F/]D/ | 
[V:2] D,,D, D,,D, | 
[V:1] [g/B/]G/[g/B/]G/ [g/B/]G/[g/B/]G/ | 
[V:2] [G,G,,][G,G,,][B,B,,][CC,] | 
[V:1] [g/B/]G/[g/B/]G/[g/B/]G/[g/B/]G/ | 
[V:2] [DD,][^C^C,][EE,][DD,] | 
[V:1] [g/B/]G/[g/B/]G/[g/B/]G/[g/B/]G/ | 
[V:2] [DD,][^C^C,][EE,][DD,] | 
[V:1] [g/B/]G/[g/B/]G/[g/B/]G/[g/B/]G/ | 
[V:2] [DD,][^C^C,][EE,][DD,] | 
[V:1] [d'b]>[d'b] [=c'a][a/f/][g/e/] | 
[V:2] D,,D, D,,D, | 
[V:1] (3[fd][ec][dB] (3[cA][BG][AF] | 
[V:2] D,,D, D,,D, | 
[V:1] [g/B/]G/[g/B/]G/ [g/B/]G/[g/B/]G/ | 
[V:2] [G,G,,][G,G,,][B,B,,][CC,] | 
[V:1] [g/B/]G/[g/B/]G/[g/B/]G/[g/B/]G/ | 
[V:2] [DD,][^C^C,][EE,][DD,] | 
[V:1] [g/B/]G/[g/B/]G/[g/B/]G/[g/B/]G/ | 
[V:2] [DD,][^C^C,][EE,][DD,] | 
[V:1] [g/B/]G/[g/B/]G/[g/B/]G/[g/B/]G/ | 
[V:2] [DD,][^C^C,][EE,][DD,] | 
[V:1] [c'2a2f2^d2][c'2a2f2d2] | 
[V:2] ^D,,^D, D,,D, | 
[V:1] [b2g2e2][a2e2c2] | 
[V:2] [E,2E,,2][C,2C,,2] | 
[V:1] [g2=d2B2]!arpeggio![F2D2C2A,2] | 
[V:2] [D,2D,,2]!arpeggio![D,2A,,2F,,2D,,2] | 
[V:1] !arpeggio![G2D2B,2G,2]!fermata!z2 |]  
[V:2] !arpeggio![G,,2D,,2B,,,2G,,,2]!fermata!z2 |]  


